lib/flags/l/TWN.svg

<svg xmlns="http://www.w3.org/2000/svg" fill="none" viewBox="0 0 32 24"><mask id="TWN_svg__a" width="32" height="24" x="0" y="0" mask-type="alpha" maskUnits="userSpaceOnUse"><path fill="#fff" d="M0 0H32V24H0z"/></mask><g mask="url(#TWN_svg__a)"><path fill="#EF0000" fill-rule="evenodd" d="M0 0V24H32V0H0Z" clip-rule="evenodd"/><mask id="TWN_svg__b" width="32" height="24" x="0" y="0" mask-type="alpha" maskUnits="userSpaceOnUse"><path fill="#fff" fill-rule="evenodd" d="M0 0V24H32V0H0Z" clip-rule="evenodd"/></mask><g fill-rule="evenodd" clip-rule="evenodd" mask="url(#TWN_svg__b)"><path fill="#2E42A5" d="M0 0V14H18V0H0Z"/><path fill="#FEFFFF" d="M8.72958 10.8108L7.24792 12.6594L6.88902 10.3177L4.68161 11.1777L5.54164 8.97029L3.19995 8.61139L5.04846 7.12973L3.19995 5.64807L5.54164 5.28917L4.68161 3.08176L6.88902 3.94178L7.24792 1.6001L8.72958 3.44861L10.2112 1.6001L10.5701 3.94178L12.7775 3.08176L11.9175 5.28917L14.2592 5.64807L12.4107 7.12973L14.2592 8.61139L11.9175 8.97029L12.7775 11.1777L10.5701 10.3177L10.2112 12.6594L8.72958 10.8108ZM8.72958 9.99207C10.3104 9.99207 11.5919 8.71056 11.5919 7.12973C11.5919 5.5489 10.3104 4.26738 8.72958 4.26738C7.14875 4.26738 5.86723 5.5489 5.86723 7.12973C5.86723 8.71056 7.14875 9.99207 8.72958 9.99207ZM11.0195 7.12973C11.0195 8.39439 9.99424 9.4196 8.72958 9.4196C7.46492 9.4196 6.4397 8.39439 6.4397 7.12973C6.4397 5.86506 7.46492 4.83985 8.72958 4.83985C9.99424 4.83985 11.0195 5.86506 11.0195 7.12973Z"/></g></g></svg>

<svg xmlns="http://www.w3.org/2000/svg" fill="none" viewBox="0 0 32 24"><mask id="TWN_svg__a" width="32" height="24" x="0" y="0" maskUnits="userSpaceOnUse"><path fill="#fff" d="M0 0h32v24H0z"/></mask><g mask="url(#TWN_svg__a)"><path fill="#EF0000" fill-rule="evenodd" d="M0 0v24h32V0H0z" clip-rule="evenodd"/><mask id="TWN_svg__b" width="32" height="24" x="0" y="0" maskUnits="userSpaceOnUse"><path fill="#fff" fill-rule="evenodd" d="M0 0v24h32V0H0z" clip-rule="evenodd"/></mask><g fill-rule="evenodd" clip-rule="evenodd" mask="url(#TWN_svg__b)"><path fill="#2E42A5" d="M0 0v14h18V0H0z"/><path fill="#FEFFFF" d="M8.73 10.81l-1.482 1.85-.359-2.342-2.207.86.86-2.208L3.2 8.611 5.048 7.13 3.2 5.648l2.342-.359-.86-2.207 2.207.86.359-2.342L8.73 3.448 10.21 1.6l.36 2.342 2.207-.86-.86 2.207 2.341.359L12.41 7.13l1.848 1.481-2.341.36.86 2.207-2.208-.86-.359 2.341-1.481-1.848zm0-.818a2.862 2.862 0 100-5.725 2.862 2.862 0 000 5.725zm2.29-2.862a2.29 2.29 0 11-4.58 0 2.29 2.29 0 014.58 0z"/></g></g></svg>
